flaticon/office/desk-3.svg

<svg xmlns="http://www.w3.org/2000/svg" width="32" height="32" viewBox="0 0 24 24">
    <path d="M18.769531 13.996094L19.566406 13.996094C19.808594 13.996094 19.964844 13.835938 19.964844 13.597656 19.964844 13.359375 19.808594 13.199219 19.566406 13.199219L18.769531 13.199219C18.527344 13.199219 18.371094 13.359375 18.371094 13.597656 18.371094 13.835938 18.527344 13.996094 18.769531 13.996094zM18.769531 17.988281L19.566406 17.988281C19.808594 17.988281 19.964844 17.832031 19.964844 17.589844 19.964844 17.351562 19.808594 17.191406 19.566406 17.191406L18.769531 17.191406C18.527344 17.191406 18.371094 17.351562 18.371094 17.589844 18.371094 17.832031 18.527344 17.988281 18.769531 17.988281zM18.769531 21.984375L19.566406 21.984375C19.808594 21.984375 19.964844 21.824219 19.964844 21.585938 19.964844 21.34375 19.808594 21.183594 19.566406 21.183594L18.769531 21.183594C18.527344 21.183594 18.371094 21.34375 18.371094 21.585938 18.371094 21.824219 18.527344 21.984375 18.769531 21.984375zM18.769531 21.984375"/>
    <path d="M 23.5625 9.5625 L 21.5625 9.5625 L 21.5625 5.609375 C 21.5625 5.371094 21.40625 5.210938 21.164062 5.210938 L 19.964844 5.210938 L 19.964844 4.011719 C 19.964844 3.773438 19.808594 3.613281 19.566406 3.613281 L 17.96875 3.613281 C 17.730469 3.613281 17.570312 3.773438 17.570312 4.011719 L 17.570312 4.414062 L 16.371094 4.414062 C 16.132812 4.414062 15.972656 4.574219 15.972656 4.8125 L 15.972656 9.5625 L 10.742188 9.5625 L 10.742188 9.324219 C 10.742188 8.804688 10.34375 8.40625 9.824219 8.40625 L 9.585938 8.40625 L 9.585938 8.007812 L 13.578125 8.007812 C 14.015625 8.007812 14.375 7.648438 14.375 7.207031 L 14.375 0.820312 C 14.375 0.378906 14.015625 0.0195312 13.578125 0.0195312 L 3.195312 0.0195312 C 2.753906 0.0195312 2.394531 0.378906 2.394531 0.820312 L 2.394531 7.207031 C 2.394531 7.648438 2.753906 8.007812 3.195312 8.007812 L 7.1875 8.007812 L 7.1875 8.40625 L 6.910156 8.40625 C 6.390625 8.40625 5.988281 8.804688 5.988281 9.324219 L 5.988281 9.5625 L 0.4375 9.5625 C 0.199219 9.5625 0 9.765625 0 10.003906 L 0 11.5625 C 0 11.800781 0.199219 12 0.4375 12 L 0.796875 12 L 0.796875 23.582031 C 0.796875 23.820312 0.957031 23.980469 1.199219 23.980469 L 2.796875 23.980469 C 3.035156 23.980469 3.195312 23.820312 3.195312 23.582031 L 3.195312 12 L 15.175781 12 L 15.175781 23.582031 C 15.175781 23.820312 15.335938 23.980469 15.574219 23.980469 L 22.761719 23.980469 C 23 23.980469 23.160156 23.820312 23.160156 23.582031 L 23.160156 12 L 23.519531 12 C 23.761719 12 23.960938 11.800781 24 11.5625 L 24 10.003906 C 24 9.765625 23.800781 9.5625 23.5625 9.5625 Z M 20.765625 6.011719 L 20.765625 9.5625 L 19.964844 9.5625 L 19.964844 6.011719 Z M 18.371094 4.414062 L 19.167969 4.414062 L 19.167969 9.5625 L 18.371094 9.5625 Z M 16.773438 5.210938 L 17.570312 5.210938 L 17.570312 9.5625 L 16.773438 9.5625 Z M 13.578125 0.820312 L 13.578125 5.609375 L 3.195312 5.609375 L 3.195312 0.820312 Z M 3.195312 6.410156 L 13.578125 6.410156 L 13.578125 7.207031 L 3.195312 7.207031 Z M 7.988281 8.007812 L 8.785156 8.007812 L 8.785156 8.40625 L 7.988281 8.40625 Z M 6.828125 9.324219 C 6.828125 9.246094 6.867188 9.203125 6.949219 9.203125 L 9.863281 9.203125 C 9.945312 9.203125 9.984375 9.246094 9.984375 9.324219 L 9.984375 9.5625 L 6.828125 9.5625 Z M 2.394531 23.179688 L 1.597656 23.179688 L 1.597656 12 L 2.394531 12 Z M 22.363281 19.1875 L 15.972656 19.1875 L 15.972656 15.992188 L 22.363281 15.992188 Z M 22.363281 23.179688 L 15.972656 23.179688 L 15.972656 19.988281 L 22.363281 19.988281 Z M 22.363281 15.195312 L 15.972656 15.195312 L 15.972656 12 L 22.363281 12 Z M 23.160156 11.203125 L 0.796875 11.203125 L 0.796875 10.402344 L 23.160156 10.402344 Z M 23.160156 11.203125"/>
    <path d="M3.992188 2.816406C4.113281 2.816406 4.191406 2.777344 4.273438 2.695312L5.070312 1.898438C5.230469 1.738281 5.230469 1.496094 5.070312 1.335938 4.910156 1.179688 4.671875 1.179688 4.511719 1.335938L3.714844 2.136719C3.554688 2.296875 3.554688 2.535156 3.714844 2.695312 3.792969 2.777344 3.875 2.816406 3.992188 2.816406zM4.113281 4.292969C4.191406 4.371094 4.273438 4.414062 4.394531 4.414062 4.511719 4.414062 4.59375 4.371094 4.671875 4.292969L6.667969 2.296875C6.828125 2.136719 6.828125 1.898438 6.667969 1.738281 6.507812 1.578125 6.269531 1.578125 6.109375 1.738281L4.113281 3.734375C3.953125 3.894531 3.953125 4.132812 4.113281 4.292969zM4.113281 4.292969"/>
</svg>

<svg xmlns="http://www.w3.org/2000/svg" width="32" height="32" viewBox="0 0 24 24">
    <path d="M18.77 13.996h.796c.243 0 .399-.16.399-.398 0-.239-.156-.399-.399-.399h-.796c-.243 0-.399.16-.399.399 0 .238.156.398.399.398zm0 0M18.77 17.988h.796c.243 0 .399-.156.399-.398 0-.238-.156-.399-.399-.399h-.796c-.243 0-.399.16-.399.399 0 .242.156.398.399.398zm0 0M18.77 21.984h.796c.243 0 .399-.16.399-.398 0-.242-.156-.402-.399-.402h-.796c-.243 0-.399.16-.399.402 0 .238.156.398.399.398zm0 0"/>
    <path d="M23.563 9.563h-2V5.608c0-.238-.157-.398-.399-.398h-1.2v-1.2c0-.238-.155-.398-.398-.398H17.97c-.239 0-.399.16-.399.399v.402h-1.199c-.238 0-.398.16-.398.399v4.75h-5.23v-.239a.902.902 0 0 0-.919-.918h-.238v-.398h3.992c.438 0 .797-.36.797-.801V.82c0-.441-.36-.8-.797-.8H3.195c-.441 0-.8.359-.8.8v6.387c0 .441.359.8.8.8h3.993v.4H6.91a.906.906 0 0 0-.922.917v.239H.438a.445.445 0 0 0-.438.44v1.56C0 11.8.2 12 .438 12h.359v11.582c0 .238.16.398.402.398h1.598c.238 0 .398-.16.398-.398V12h11.98v11.582c0 .238.16.398.4.398h7.187c.238 0 .398-.16.398-.398V12h.36c.242 0 .44-.2.48-.438v-1.558c0-.238-.2-.441-.438-.441zm-2.797-3.551v3.55h-.801v-3.55zM18.37 4.414h.797v5.149h-.797zm-1.598.797h.797v4.351h-.797zM13.578.82v4.788H3.195V.82zM3.195 6.41h10.383v.796H3.195zm4.793 1.597h.797v.398h-.797zm-1.16 1.316c0-.078.04-.12.121-.12h2.914c.082 0 .121.042.121.12v.239H6.828zM2.395 23.18h-.797V12h.797zm19.968-3.992h-6.39v-3.196h6.39zm0 3.992h-6.39v-3.192h6.39zm0-7.985h-6.39V12h6.39zm.797-3.992H.797v-.8H23.16zm0 0"/>
    <path d="M3.992 2.816c.121 0 .2-.039.281-.12l.797-.798a.39.39 0 0 0 0-.562.391.391 0 0 0-.558 0l-.797.8a.385.385 0 0 0 0 .56c.078.081.16.12.277.12zm0 0M4.113 4.293c.078.078.16.121.282.121.117 0 .199-.043.277-.121l1.996-1.996a.385.385 0 0 0 0-.559.385.385 0 0 0-.559 0L4.113 3.734a.385.385 0 0 0 0 .559zm0 0"/>
</svg>
